dist/assets/img/logo-caelum.svg

<?xml version="1.0" encoding="UTF-8" standalone="no"?>
<svg width="101px" height="21px" viewBox="0 0 101 21" version="1.1" xmlns="http://www.w3.org/2000/svg" xmlns:xlink="http://www.w3.org/1999/xlink" xmlns:sketch="http://www.bohemiancoding.com/sketch/ns">
    <!-- Generator: sketchtool 3.4.4 (395) - http://www.bohemiancoding.com/sketch -->
    <title>Caelum Logo</title>
    <desc>Created with sketchtool.</desc>
    <defs></defs>
    <g id="Page-1" stroke="none" stroke-width="1" fill="none" fill-rule="evenodd" sketch:type="MSPage">
        <g id="Desktop-HD" sketch:type="MSArtboardGroup" transform="translate(-794.000000, -4854.000000)" fill="#000000">
            <g id="Group" sketch:type="MSLayerGroup" transform="translate(0.000000, 4840.000000)">
                <path d="M839.45021,26.40974 L839.45,29.35625 C838.833058,29.90561 838.227058,30.32981 837.635367,30.62948 C837.043465,30.92894 836.341094,31.07573 835.524677,31.07573 C834.10731,31.07573 833.400731,30.39302 833.400731,29.02823 C833.400731,28.16345 833.742658,27.56012 834.426513,27.21047 C834.776856,27.02798 835.109104,26.87405 835.425992,26.75771 C836.02631,26.52482 837.365612,26.40995 839.45,26.40995 L839.45021,26.40974 Z M850.043427,21.34349 C852.044069,21.34349 853.041865,22.71101 853.041865,25.34 L846.538727,25.34 C846.722,22.71101 847.892758,21.34349 850.043427,21.34349 L850.043427,21.34349 Z M878.797917,19.65026 C878.081658,19.65026 877.745833,19.82897 877.745833,20.195 L877.745833,32.34875 C877.745833,32.71499 878.081448,32.9 878.797917,32.9 C879.514385,32.9 879.85021,32.7152 879.85,32.34875 L879.85,23.19401 L880.224962,22.7675 C880.458315,22.46804 880.827596,22.17803 881.336173,21.89474 C881.84496,21.61208 882.426762,21.46823 883.085367,21.46823 C883.74376,21.46823 884.274852,21.68516 884.683271,22.11797 C885.091479,22.55099 885.320833,23.14067 885.320833,23.88995 L885.320833,32.34896 C885.320833,32.7152 885.656448,32.9 886.372917,32.9 C887.089385,32.9 887.425,32.71541 887.425,32.34896 C887.400381,29.3069 887.458246,26.22116 887.425,23.19422 C888.441733,22.04636 889.415752,21.46823 890.44995,21.46823 C891.233331,21.46823 891.829442,21.68516 892.238492,22.11797 C892.6467,22.55099 892.895833,23.14067 892.895833,23.88995 L892.895833,32.34896 C892.895833,32.7152 893.182421,32.9 893.902046,32.9 C894.621671,32.9 895,32.71541 895,32.34896 L895,23.69297 C895,22.89455 894.829352,22.21142 894.579377,21.64547 C894.329192,21.08015 893.99021,20.65574 893.573375,20.37224 C892.82324,19.88966 891.979258,19.65026 891.028596,19.65026 C889.544737,19.65026 888.217219,20.33654 887.050458,21.7175 C886.483385,20.33654 885.290533,19.65026 883.473375,19.65026 C882.099985,19.65026 880.894087,20.20508 879.85,21.32375 L879.85,20.195 C879.85,19.82897 879.514175,19.65026 878.797917,19.65026 L878.797917,19.65026 Z M865.33146,19.63052 C864.615202,19.63052 864.279167,19.81616 864.279167,20.18177 L864.279167,28.84427 C864.279167,30.10931 864.849606,31.09568 865.574702,31.81052 C866.300008,32.52641 867.355458,32.88677 868.730952,32.88677 C870.03806,32.88677 871.201454,32.3204 872.275,31.19354 L872.275,32.34854 C872.275,32.71415 872.629342,32.9 873.327083,32.9 C874.024825,32.9 874.379167,32.73599 874.379167,32.40755 L874.379167,20.18156 C874.379167,19.81595 874.057019,19.63031 873.34034,19.63031 C872.623871,19.63031 872.275,19.81595 872.275,20.18156 L872.275,29.31656 C871.374837,30.48185 870.338956,31.06229 869.138529,31.06229 C868.321481,31.06229 867.692756,30.84998 867.251302,30.42578 C866.809427,30.00137 866.383333,29.40665 866.383333,28.64078 L866.383333,20.18177 C866.383333,19.81616 866.047508,19.63052 865.33125,19.63052 L865.33146,19.63052 Z M849.964521,19.54526 C848.146942,19.54526 846.746198,20.12318 845.76271,21.27125 C844.778802,22.41932 844.289583,24.10331 844.289583,26.32448 C844.289583,28.54565 844.788692,30.19772 845.789013,31.27922 C846.789333,32.36114 848.334002,32.89979 850.418179,32.9 C851.601773,32.9 852.64586,32.7152 853.55465,32.34896 C854.463229,31.98314 854.915835,31.63853 854.915835,31.30547 C854.915835,31.13915 854.815046,30.88379 854.606733,30.55073 C854.398,30.21809 854.207573,30.05198 854.041133,30.05198 C854.007467,30.05198 853.831558,30.13535 853.515092,30.30146 C852.56485,30.83423 851.525181,31.10219 850.391667,31.10219 C849.157573,31.10219 848.233423,30.77984 847.616692,30.13094 C846.99954,29.48204 846.638465,28.61159 846.538306,27.23 L854.442187,27.23 C855.026304,27.03932 855.237562,26.67854 855.270808,26.06198 C855.270808,21.71918 853.498679,19.54547 849.96431,19.54547 L849.964521,19.54526 Z M836.898908,19.54526 C835.531831,19.54526 834.362967,19.72544 833.387475,20.08349 C832.411983,20.44133 831.921081,20.79749 831.921081,21.14672 C831.921081,21.31283 832.027763,21.56168 832.236706,21.89495 C832.444808,22.22801 832.628502,22.3937 832.795573,22.3937 C832.828819,22.3937 833.024085,22.30109 833.374219,22.11797 C834.390952,21.60242 835.5009,21.34349 836.701538,21.34349 C838.535319,21.34349 839.45,22.03943 839.45,23.43698 L839.45,24.61172 C837.999598,24.64511 836.704483,24.7331 835.570548,24.87422 C834.436613,25.01597 833.421773,25.41812 832.512983,26.07521 C831.604194,26.73272 831.145275,27.71405 831.145275,29.02844 C831.145275,30.34325 831.538544,31.3166 832.322346,31.9487 C833.105727,32.58164 834.14224,32.9 835.425992,32.9 C837.008325,32.9 838.347838,32.33846 839.45,31.2137 L839.45,32.34896 C839.45,32.71478 839.785825,32.90147 840.502083,32.9 C841.218342,32.89853 841.554377,32.71499 841.554167,32.34896 L841.554167,23.46323 C841.554377,22.23179 841.119235,21.27272 840.252319,20.58224 C839.385192,19.89197 838.265775,19.54526 836.898698,19.54526 L836.898908,19.54526 Z M824.753869,19.54526 C823.169852,19.54526 821.830129,19.98878 820.72965,20.87099 C820.145954,21.35399 819.683669,22.04636 819.342162,22.94474 C819.000446,23.84333 818.829167,24.91244 818.829167,26.16047 C818.829167,28.52339 819.337744,30.24056 820.354687,31.30547 C821.371421,32.37038 822.91651,32.9 824.983854,32.9 C826.034044,32.9 826.948725,32.7614 827.732527,32.48672 C828.515908,32.21225 828.909598,31.92644 828.909598,31.62698 C828.909598,31.42727 828.807335,31.16393 828.607019,30.83948 C828.406912,30.51482 828.221115,30.35375 828.054675,30.35375 C828.037842,30.35375 828.001229,30.36824 827.942944,30.39323 C827.884448,30.41801 827.83521,30.43586 827.785131,30.45224 C826.918215,30.88505 825.974496,31.10198 824.957552,31.10198 C823.557019,31.10198 822.557329,30.70949 821.965637,29.92724 C821.373525,29.14541 820.933333,27.87848 820.933333,26.11448 C820.933333,22.93655 822.28989,21.34349 824.707787,21.34349 C825.624573,21.34349 826.529785,21.54152 827.430158,21.94073 C827.463404,21.95774 827.497281,21.9716 827.522321,21.98021 L827.621006,22.01969 C827.662458,22.03649 827.689602,22.04594 827.706435,22.04594 C827.856463,22.04594 828.02711,21.87521 828.219431,21.53396 C828.41091,21.19292 828.508754,20.91026 828.508754,20.69396 C828.508754,20.3945 828.124744,20.13305 827.357985,19.89995 C826.590806,19.66727 825.720733,19.54547 824.754079,19.54547 L824.753869,19.54526 Z M811.10961,16.1 C812.347281,16.1 812.9375,16.77494 812.9375,18.00974 L812.9375,30.99047 C812.9375,32.22527 812.347702,32.9 811.10961,32.9 L798.103125,32.9 C796.865665,32.9 796.104167,32.22527 796.104167,30.99047 C796.126892,23.40506 803.2112,16.0769 811.10961,16.10021 L811.10961,16.1 Z M798.096602,16.1 L798.622644,17.465 L800.089038,17.54375 L798.951525,18.46901 L799.326277,19.88 L798.096602,19.08599 L796.866927,19.88 L797.241679,18.46901 L796.104167,17.54375 L797.57056,17.465 L798.096602,16.1 Z M858.597917,14 C857.881658,14 857.545833,14.18543 857.545833,14.55125 L857.545833,29.45474 C857.545833,30.73637 857.873662,31.63139 858.532267,32.13875 C859.19066,32.64653 859.940585,32.9 860.774467,32.9 C861.991096,32.9 862.595833,32.65115 862.595833,32.15177 C862.595833,31.98566 862.544702,31.75109 862.444544,31.44302 C862.344385,31.13516 862.219819,30.97703 862.069792,30.97703 C862.036335,30.97703 861.921448,31.00118 861.721342,31.04276 C861.521235,31.08455 861.28136,31.10177 860.997929,31.10177 C860.097767,31.10177 859.65,30.48941 859.65,29.25776 L859.65,14.55125 C859.65,14.18543 859.313965,14 858.597917,14 L858.597917,14 Z M797.366667,14 C795.505531,14 794,15.50276 794,17.36 L794,31.64 C794,33.49745 795.505531,35 797.366667,35 L811.675,35 C813.535925,35 815.041667,33.49745 815.041667,31.64 L815.041667,17.36 C815.041667,15.50255 813.535925,14 811.675,14 L797.366667,14 Z" id="Caelum-Logo" sketch:type="MSShapeGroup"></path>
            </g>
        </g>
    </g>
</svg>

<svg width="101" height="21" viewBox="0 0 101 21" xmlns="http://www.w3.org/2000/svg"><title>Caelum Logo</title><g id="Page-1" fill="none" fill-rule="evenodd"><g id="Desktop-HD" fill="#000"><g id="Group"><path d="M839.45 26.41v2.946c-.617.55-1.223.974-1.815 1.273-.592.3-1.294.447-2.11.447-1.418 0-2.124-.683-2.124-2.048 0-.865.342-1.468 1.026-1.818.35-.182.682-.336.999-.452.6-.233 1.94-.348 4.024-.348zm10.593-5.067c2.001 0 2.999 1.368 2.999 3.997h-6.503c.183-2.629 1.354-3.997 3.504-3.997zm28.755-1.693c-.716 0-1.052.179-1.052.545v12.154c0 .366.335.551 1.052.551.716 0 1.052-.185 1.052-.551v-9.155l.375-.427c.233-.299.603-.589 1.111-.872.509-.283 1.09-.427 1.75-.427.658 0 1.189.217 1.597.65.408.433.638 1.023.638 1.772v8.459c0 .366.335.551 1.052.551.716 0 1.052-.185 1.052-.551-.025-3.042.033-6.128 0-9.155 1.017-1.148 1.99-1.726 3.025-1.726.783 0 1.38.217 1.788.65.409.433.658 1.023.658 1.772v8.459c0 .366.286.551 1.006.551s1.098-.185 1.098-.551v-8.656c0-.798-.17-1.482-.42-2.048-.25-.565-.59-.99-1.007-1.273-.75-.482-1.594-.722-2.544-.722-1.484 0-2.812.687-3.979 2.068-.567-1.381-1.76-2.068-3.577-2.068-1.373 0-2.579.555-3.623 1.674v-1.129c0-.366-.336-.545-1.052-.545zm-13.467-.02c-.716 0-1.052.186-1.052.552v8.662c0 1.265.57 2.252 1.296 2.967.725.715 1.78 1.076 3.156 1.076 1.307 0 2.47-.567 3.544-1.693v1.155c0 .365.354.551 1.052.551.698 0 1.052-.164 1.052-.492V20.182c0-.366-.322-.552-1.039-.552-.716 0-1.065.186-1.065.552v9.135c-.9 1.165-1.936 1.745-3.136 1.745-.818 0-1.446-.212-1.888-.636-.442-.425-.868-1.02-.868-1.785v-8.46c0-.365-.335-.55-1.052-.55zm-15.366-.085c-1.818 0-3.219.578-4.202 1.726-.984 1.148-1.473 2.832-1.473 5.053 0 2.222.499 3.874 1.499 4.955 1 1.082 2.545 1.62 4.63 1.621 1.183 0 2.227-.185 3.136-.551.908-.366 1.36-.71 1.36-1.044 0-.166-.1-.421-.308-.754-.209-.333-.4-.499-.566-.499-.034 0-.21.083-.526.25-.95.532-1.99.8-3.123.8-1.234 0-2.159-.322-2.775-.971-.617-.649-.979-1.52-1.079-2.901h7.904c.584-.19.796-.551.829-1.168 0-4.343-1.772-6.517-5.307-6.517zm-13.066 0c-1.367 0-2.536.18-3.512.538-.975.358-1.466.714-1.466 1.064 0 .166.107.415.316.748.208.333.392.499.559.499.033 0 .228-.093.578-.276 1.017-.516 2.127-.775 3.328-.775 1.833 0 2.748.696 2.748 2.094v1.175c-1.45.033-2.746.121-3.88.262a6.506 6.506 0 0 0-3.057 1.201c-.909.658-1.368 1.64-1.368 2.953 0 1.315.394 2.289 1.177 2.92.784.634 1.82.952 3.104.952 1.582 0 2.922-.562 4.024-1.686v1.135c0 .366.336.552 1.052.551.716-.001 1.052-.185 1.052-.551v-8.886c0-1.231-.435-2.19-1.302-2.88-.867-.691-1.986-1.038-3.353-1.038zm-12.145 0c-1.584 0-2.924.444-4.024 1.326-.584.483-1.046 1.175-1.388 2.074-.342.898-.513 1.967-.513 3.215 0 2.363.509 4.08 1.526 5.145 1.016 1.065 2.562 1.595 4.629 1.595 1.05 0 1.965-.139 2.749-.413.783-.275 1.177-.56 1.177-.86 0-.2-.103-.463-.303-.788-.2-.324-.386-.485-.552-.485a.439.439 0 0 0-.112.04 1.92 1.92 0 0 1-.158.058c-.867.433-1.81.65-2.827.65-1.401 0-2.4-.393-2.992-1.175-.592-.782-1.033-2.049-1.033-3.813 0-3.177 1.357-4.77 3.775-4.77.917 0 1.822.198 2.722.597.033.017.067.03.092.04l.099.039a.286.286 0 0 0 .085.026c.15 0 .321-.17.513-.512.192-.341.29-.624.29-.84 0-.3-.384-.56-1.151-.794-.767-.233-1.637-.355-2.604-.355zM811.11 16.1c1.237 0 1.827.675 1.827 1.91v12.98c0 1.235-.59 1.91-1.827 1.91h-13.007c-1.237 0-1.999-.675-1.999-1.91.023-7.585 7.107-14.913 15.006-14.89zm-13.013 0l.526 1.365 1.466.079-1.137.925.374 1.411-1.23-.794-1.23.794.376-1.411-1.138-.925 1.467-.079.526-1.365zm60.5-2.1c-.715 0-1.051.185-1.051.551v14.904c0 1.281.328 2.176.986 2.684a3.58 3.58 0 0 0 2.242.761c1.217 0 1.822-.249 1.822-.748 0-.166-.051-.4-.151-.709-.1-.308-.225-.466-.375-.466-.034 0-.149.024-.349.066-.2.042-.44.059-.723.059-.9 0-1.348-.613-1.348-1.844V14.55c0-.366-.336-.551-1.052-.551zm-61.23 0A3.361 3.361 0 0 0 794 17.36v14.28a3.361 3.361 0 0 0 3.367 3.36h14.308a3.361 3.361 0 0 0 3.367-3.36V17.36a3.361 3.361 0 0 0-3.367-3.36h-14.308z" id="Caelum-Logo" transform="translate(-794 -14)"/></g></g></g></svg>
